; generated by Slic3r 0.9.11-dev on 2013-12-26 at 09:27:50

; layer_height = 0.4
; perimeters = 3
; top_solid_layers = 3
; bottom_solid_layers = 3
; fill_density = 0.4
; perimeter_speed = 30
; infill_speed = 60
; travel_speed = 130
; nozzle_diameter = 0.5
; filament_diameter = 3
; extrusion_multiplier = 0.9
; perimeters extrusion width = 0.50mm
; infill extrusion width = 0.53mm
; solid infill extrusion width = 0.53mm
; top infill extrusion width = 0.53mm
; support material extrusion width = 0.50mm
; first layer extrusion width = 1.00mm

G21 ; set units to millimeters
M107
M190 S55 ; wait for bed temperature to be reached
M104 S200 ; set temperature
G28 ; home all axes
G1 Z5 F5000 ; lift nozzle
M109 S200 ; wait for temperature to be reached
G90 ; use absolute coordinates
G92 E0
M82 ; use absolute distances for extrusion
G1 F1800.000 E-1.00000
G92 E0
G1 Z0.500 F7800.000
G1 X31.309 Y62.290 F7800.000
G1 E1.00000 F1800.000
G1 X32.609 Y61.700 E1.08113 F540.000
G1 X34.009 Y61.390 E1.16262
G1 X117.339 Y51.900 E5.92896
G1 X122.519 Y51.390 E6.22477
G1 X123.199 Y51.360 E6.26345
G1 X123.709 Y51.360 E6.29244
G1 X124.389 Y51.390 E6.33112
G1 X129.749 Y51.920 E6.63722
G1 X133.299 Y52.420 E6.84096
G1 X134.339 Y52.650 E6.90149
G1 X140.939 Y54.640 E7.29326
G1 X141.689 Y54.920 E7.33875
G1 X143.329 Y55.650 E7.44077
G1 X149.889 Y59.160 E7.86359
G1 X150.449 Y59.490 E7.90053
G1 X150.969 Y59.870 E7.93714
G1 X151.589 Y60.370 E7.98240
G1 X157.119 Y64.910 E8.38902
G1 X157.669 Y65.420 E8.43165
G1 X158.569 Y66.370 E8.50602
G1 X163.449 Y72.310 E8.94291
G1 X163.869 Y72.870 E8.98269
G1 X164.229 Y73.460 E9.02197
G1 X165.329 Y75.490 E9.15318
G1 X167.999 Y80.500 E9.47582
G1 X168.269 Y81.070 E9.51166
G1 X168.479 Y81.570 E9.54248
G1 X168.729 Y82.260 E9.58419
G1 X169.039 Y83.260 E9.64369
G1 X170.999 Y89.730 E10.02789
G1 X171.239 Y90.780 E10.08910
G1 X171.339 Y91.550 E10.13323
G1 X172.079 Y99.050 E10.56153
G1 X172.109 Y99.740 E10.60078
G1 X172.109 Y100.250 E10.62976
G1 X172.079 Y100.940 E10.66901
G1 X171.339 Y108.420 E11.09618
G1 X171.239 Y109.210 E11.14144
G1 X170.999 Y110.250 E11.20210
G1 X168.729 Y117.730 E11.64634
G1 X168.479 Y118.420 E11.68804
G1 X168.269 Y118.920 E11.71886
G1 X167.999 Y119.490 E11.75471
G1 X167.199 Y121.000 E11.85182
G1 X164.229 Y126.530 E12.20856
G1 X163.869 Y127.120 E12.24783
G1 X163.449 Y127.680 E12.28762
G1 X158.569 Y133.620 E12.72451
G1 X157.669 Y134.570 E12.79888
G1 X157.119 Y135.080 E12.84150
G1 X151.589 Y139.620 E13.24812
G1 X150.969 Y140.120 E13.29339
G1 X150.449 Y140.490 E13.32966
G1 X149.899 Y140.820 E13.36611
G1 X148.949 Y141.340 E13.42766
G1 X143.329 Y144.340 E13.78970
G1 X141.689 Y145.070 E13.89172
G1 X140.939 Y145.350 E13.93722
G1 X134.339 Y147.350 E14.32915
G1 X133.299 Y147.580 E14.38968
G1 X129.749 Y148.080 E14.59342
G1 X124.389 Y148.610 E14.89952
G1 X123.709 Y148.640 E14.93820
G1 X123.199 Y148.640 E14.96719
G1 X122.519 Y148.610 E15.00587
G1 X117.339 Y148.100 E15.30168
G1 X34.009 Y138.600 E20.06808
G1 X32.609 Y138.290 E20.14957
G1 X31.309 Y137.700 E20.23070
G1 X30.149 Y136.850 E20.31243
G1 X29.199 Y135.780 E20.39375
G1 X28.489 Y134.540 E20.47495
G1 X28.049 Y133.170 E20.55673
G1 X27.899 Y131.750 E20.63788
G1 X27.899 Y68.240 E24.24722
G1 X28.049 Y66.820 E24.32836
G1 X28.489 Y65.450 E24.41014
G1 X29.199 Y64.210 E24.49134
G1 X30.149 Y63.140 E24.57266
G1 X31.201 Y62.369 E24.64678
G1 F1800.000 E23.64678
G92 E0
G1 X34.789 Y86.247 F7800.000
G1 E1.00000 F1800.000
G1 X102.357 Y86.247 E3.15121 F1080.000
G1 X102.694 Y85.747 E3.17041
G1 X34.789 Y85.747 E5.33234
G1 X34.789 Y85.247 E5.34826
G1 X103.105 Y85.247 E7.52326
G1 X103.515 Y84.747 E7.54386
G1 X34.789 Y84.747 E9.73193
G1 X34.789 Y84.247 E9.74785
G1 X103.925 Y84.247 E11.94899
G1 X104.336 Y83.747 E11.96958
G1 X34.789 Y83.747 E14.18379
G1 X34.789 Y83.247 E14.19971
G1 X96.197 Y83.247 E16.15479
G1 X95.777 Y82.746 E16.17560
G1 X34.789 Y82.746 E18.11729
G1 X34.789 Y82.246 E18.13321
G1 X95.574 Y82.246 E20.06846
G1 X95.532 Y81.746 E20.08443
G1 X34.789 Y81.746 E22.01835
G1 X34.789 Y81.246 E22.03427
G1 X95.638 Y81.246 E23.97156
G1 X95.953 Y80.746 E23.99037
G1 X34.789 Y80.746 E25.93767
G1 X34.789 Y80.246 E25.95360
G1 X107.974 Y80.246 E28.28363
G1 X108.583 Y79.746 E28.30873
G1 X34.789 Y79.746 E30.65816
G1 X34.789 Y79.246 E30.67408
G1 X109.193 Y79.246 E33.04291
G1 X109.990 Y78.746 E33.07287
G1 X34.789 Y78.746 E35.46709
G1 X34.789 Y78.246 E35.48301
G1 X110.926 Y78.246 E37.90701
G1 X111.861 Y77.745 E37.94078
G1 X34.789 Y77.745 E40.39457
G1 X34.789 Y77.245 E40.41049
G1 X112.797 Y77.245 E42.89407
G1 X113.732 Y76.745 E42.92785
G1 X34.789 Y76.745 E45.44121
G1 X34.789 Y76.245 E45.45713
G1 X115.321 Y76.245 E48.02108
G1 X116.970 Y75.745 F7800.000
G1 X34.789 Y75.745 E50.63751 F1080.000
G1 X34.789 Y75.245 E50.65343
G1 X118.778 Y75.245 E53.32743
G1 F1800.000 E52.32743
G92 E0
G1 X110.266 Y72.744 F7800.000
G1 E1.00000 F1800.000
G1 X136.655 Y72.744 E1.84016 F1080.000
G1 X136.506 Y72.244 E1.85678
G1 X110.416 Y72.244 E2.68744
G1 X110.426 Y71.744 E2.70337
G1 X136.496 Y71.744 E3.53339
G1 X136.635 Y71.244 E3.54991
G1 X110.289 Y71.244 E4.38871
G1 X109.998 Y70.744 E4.40713
G1 X136.924 Y70.744 E5.26438
G1 X137.563 Y70.244 E5.29021
G1 X109.359 Y70.244 E6.18813
G1 X107.843 Y70.244 F7800.000
G1 X94.172 Y70.244 E6.62339 F1080.000
G1 X93.678 Y70.744 E6.64578
G1 X107.283 Y70.744 E7.07894
G1 X107.033 Y71.244 E7.09675
G1 X93.267 Y71.244 E7.53501
G1 X92.857 Y71.744 E7.55560
G1 X106.964 Y71.744 E8.00473
G1 X107.022 Y72.244 E8.02076
G1 X34.789 Y72.244 E10.32046
G1 X34.789 Y72.744 E10.33638
G1 X107.227 Y72.744 E12.64264
G1 X107.637 Y73.245 E12.66322
G1 X34.789 Y73.245 E14.98250
G1 X34.789 Y73.745 E14.99843
G1 X155.707 Y73.745 E18.84815
G1 X156.117 Y74.245 E18.86874
G1 X34.789 Y74.245 E22.73153
G1 X34.789 Y74.745 E22.74745
G1 X156.527 Y74.745 E26.62331
G1 X156.938 Y75.245 E26.64390
G1 X128.144 Y75.245 E27.56063
G1 X129.952 Y75.745 F7800.000
G1 X157.348 Y75.745 E28.43286 F1080.000
G1 X157.759 Y76.245 E28.45345
G1 X131.601 Y76.245 E29.28626
G1 X133.190 Y76.745 F7800.000
G1 X158.169 Y76.745 E30.08155 F1080.000
G1 X158.448 Y77.245 E30.09978
G1 X134.125 Y77.245 E30.87417
G1 X135.061 Y77.745 E30.90794
G1 X158.716 Y77.745 E31.66105
G1 X158.983 Y78.246 E31.67911
G1 X135.996 Y78.246 E32.41094
G1 X136.932 Y78.746 E32.44471
G1 X159.250 Y78.746 E33.15527
G1 X159.517 Y79.246 E33.17332
G1 X137.729 Y79.246 E33.86701
G1 X138.338 Y79.746 E33.89211
G1 X159.785 Y79.746 E34.57490
G1 X160.052 Y80.246 E34.59296
G1 X138.948 Y80.246 E35.26486
G1 X139.557 Y80.746 E35.28996
G1 X148.387 Y80.746 E35.57108
G1 X148.014 Y81.246 E35.59094
G1 X140.167 Y81.246 E35.84079
G1 X140.776 Y81.746 E35.86589
G1 X147.832 Y81.746 E36.09053
G1 X147.816 Y82.246 E36.10646
G1 X141.355 Y82.246 E36.31218
G1 X141.765 Y82.746 E36.33278
G1 X147.944 Y82.746 E36.52949
G1 X148.292 Y83.247 E36.54890
G1 X142.176 Y83.247 E36.74363
G1 X142.586 Y83.747 E36.76423
G1 X161.923 Y83.747 E37.37988
G1 X162.136 Y84.247 E37.39718
G1 X142.996 Y84.247 E38.00653
G1 X143.407 Y84.747 E38.02713
G1 X162.288 Y84.747 E38.62824
G1 X162.439 Y85.247 E38.64488
G1 X143.817 Y85.247 E39.23776
G1 X144.228 Y85.747 E39.25835
G1 X162.591 Y85.747 E39.84300
G1 X162.743 Y86.247 E39.85963
G1 X144.565 Y86.247 E40.43837
G1 X144.832 Y86.747 E40.45643
G1 X162.894 Y86.747 E41.03149
G1 X163.046 Y87.247 E41.04813
G1 X145.099 Y87.247 E41.61951
G1 X145.367 Y87.747 E41.63756
G1 X163.198 Y87.747 E42.20526
G1 X163.349 Y88.248 E42.22190
G1 X145.634 Y88.248 E42.78592
G1 X145.901 Y88.748 E42.80397
G1 X163.501 Y88.748 E43.36431
G1 X163.653 Y89.248 E43.38095
G1 X146.169 Y89.248 E43.93761
G1 X146.436 Y89.748 E43.95566
G1 X163.805 Y89.748 E44.50864
G1 X163.956 Y90.248 E44.52528
G1 X146.703 Y90.248 E45.07457
G1 X146.879 Y90.748 E45.09144
G1 X164.108 Y90.748 E45.63999
G1 X164.260 Y91.248 E45.65663
G1 X147.030 Y91.248 E46.20517
G1 X147.182 Y91.748 E46.22181
G1 X164.411 Y91.748 E46.77036
G1 X164.481 Y92.248 E46.78643
G1 X147.334 Y92.248 E47.33237
G1 X147.485 Y92.749 E47.34901
G1 X164.530 Y92.749 E47.89168
G1 X164.580 Y93.249 E47.90768
G1 X147.637 Y93.249 E48.44709
G1 X147.789 Y93.749 E48.46373
G1 X164.629 Y93.749 E48.99988
G1 X164.678 Y94.249 E49.01588
G1 X147.940 Y94.249 E49.54877
G1 X148.092 Y94.749 E49.56541
G1 X154.028 Y94.749 E49.75439
G1 X153.506 Y95.249 E49.77741
G1 X148.209 Y95.249 E49.94604
G1 X148.259 Y95.749 E49.96204
G1 X153.263 Y95.749 E50.12137
G1 X153.209 Y96.249 E50.13738
G1 X148.308 Y96.249 E50.29343
G1 X148.357 Y96.749 E50.30943
G1 X153.307 Y96.749 E50.46703
G1 X153.601 Y97.249 E50.48550
G1 X148.406 Y97.249 E50.65089
G1 X148.456 Y97.750 E50.66689
G1 X154.338 Y97.750 E50.85417
G1 X155.689 Y97.750 F7800.000
G1 X165.023 Y97.750 E51.15134 F1080.000
G1 X164.974 Y97.249 E51.16734
G1 X156.430 Y97.249 E51.43935
G1 X156.744 Y96.749 E51.45814
G1 X164.924 Y96.749 E51.71860
G1 X164.875 Y96.249 E51.73460
G1 X156.869 Y96.249 E51.98949
G1 X156.821 Y95.749 E52.00549
G1 X164.826 Y95.749 E52.26035
G1 X164.777 Y95.249 E52.27635
G1 X156.606 Y95.249 E52.53650
G1 X156.096 Y94.749 E52.55923
G1 X164.727 Y94.749 E52.83404
G1 F1800.000 E51.83404
G92 E0
G1 X165.072 Y98.250 F7800.000
G1 E1.00000 F1800.000
G1 X148.505 Y98.250 E1.52746 F1080.000
G1 X148.554 Y98.750 E1.54346
G1 X165.122 Y98.750 E2.07093
G1 X165.171 Y99.250 E2.08693
G1 X148.603 Y99.250 E2.61439
G1 X148.653 Y99.750 E2.63039
G1 X165.220 Y99.750 E3.15784
G1 X165.220 Y100.250 E3.17376
G1 X148.653 Y100.250 E3.70121
G1 X148.603 Y100.750 E3.71721
G1 X165.171 Y100.750 E4.24467
G1 X165.122 Y101.250 E4.26067
G1 X148.554 Y101.250 E4.78814
G1 X148.505 Y101.750 E4.80414
G1 X165.072 Y101.750 E5.33160
G1 X165.023 Y102.250 E5.34760
G1 X148.456 Y102.250 E5.87507
G1 X148.406 Y102.751 E5.89106
G1 X164.974 Y102.751 E6.41853
G1 X164.924 Y103.251 E6.43453
G1 X148.357 Y103.251 E6.96199
G1 X148.308 Y103.751 E6.97799
G1 X164.875 Y103.751 E7.50546
G1 X164.826 Y104.251 E7.52146
G1 X148.259 Y104.251 E8.04892
G1 X148.209 Y104.751 E8.06492
G1 X164.777 Y104.751 E8.59238
G1 X164.727 Y105.251 E8.60838
G1 X148.092 Y105.251 E9.13801
G1 X147.940 Y105.751 E9.15465
G1 X164.678 Y105.751 E9.68754
G1 X164.629 Y106.251 E9.70354
G1 X147.789 Y106.251 E10.23969
G1 X147.637 Y106.751 E10.25633
G1 X164.580 Y106.751 E10.79574
G1 X164.530 Y107.251 E10.81174
G1 X147.485 Y107.251 E11.35441
G1 X147.334 Y107.752 E11.37105
G1 X164.481 Y107.752 E11.91699
G1 X164.411 Y108.252 E11.93306
G1 X147.182 Y108.252 E12.48161
G1 X147.030 Y108.752 E12.49825
G1 X164.260 Y108.752 E13.04679
G1 X164.108 Y109.252 E13.06343
G1 X146.879 Y109.252 E13.61198
G1 X146.703 Y109.752 E13.62885
G1 X152.240 Y109.752 E13.80512
G1 X151.658 Y110.252 E13.82956
G1 X146.436 Y110.252 E13.99581
G1 X146.169 Y110.752 E14.01387
G1 X151.417 Y110.752 E14.18097
G1 X151.350 Y111.252 E14.19703
G1 X145.901 Y111.252 E14.37052
G1 X145.634 Y111.752 E14.38857
G1 X151.455 Y111.752 E14.57389
G1 X151.724 Y112.253 E14.59197
G1 X145.367 Y112.253 E14.79436
G1 X145.099 Y112.753 E14.81241
G1 X152.314 Y112.753 E15.04210
G1 X154.170 Y112.753 F7800.000
G1 X163.046 Y112.753 E15.32468 F1080.000
G1 X162.894 Y113.253 E15.34132
G1 X144.832 Y113.253 E15.91638
G1 X144.565 Y113.753 E15.93443
G1 X162.743 Y113.753 E16.51317
G1 X162.591 Y114.253 E16.52981
G1 X144.228 Y114.253 E17.11445
G1 X143.817 Y114.753 E17.13505
G1 X162.439 Y114.753 E17.72793
G1 X162.288 Y115.253 E17.74457
G1 X143.407 Y115.253 E18.34568
G1 X142.996 Y115.753 E18.36628
G1 X162.136 Y115.753 E18.97563
G1 X161.923 Y116.253 E18.99293
G1 X142.586 Y116.253 E19.60858
G1 X142.176 Y116.753 E19.62918
G1 X161.656 Y116.753 E20.24938
G1 X161.389 Y117.254 E20.26744
G1 X141.765 Y117.254 E20.89220
G1 X141.355 Y117.754 E20.91280
G1 X161.121 Y117.754 E21.54212
G1 X160.854 Y118.254 E21.56017
G1 X140.776 Y118.254 E22.19941
G1 X140.167 Y118.754 E22.22450
G1 X160.587 Y118.754 E22.87463
G1 X160.319 Y119.254 E22.89268
G1 X139.557 Y119.254 E23.55370
G1 X138.948 Y119.754 E23.57880
G1 X160.052 Y119.754 E24.25070
G1 X159.785 Y120.254 E24.26876
G1 X138.338 Y120.254 E24.95155
G1 X137.729 Y120.754 E24.97665
G1 X159.517 Y120.754 E25.67034
G1 X159.250 Y121.254 E25.68839
G1 X136.932 Y121.254 E26.39895
G1 X135.996 Y121.754 E26.43272
G1 X158.983 Y121.754 E27.16455
G1 X158.716 Y122.255 E27.18261
G1 X145.334 Y122.255 E27.60864
G1 X145.894 Y122.755 E27.63254
G1 X158.448 Y122.755 E28.03225
G1 X158.169 Y123.255 E28.05048
G1 X146.176 Y123.255 E28.43232
G1 X146.278 Y123.755 E28.44858
G1 X157.759 Y123.755 E28.81409
G1 X157.348 Y124.255 E28.83469
G1 X146.250 Y124.255 E29.18805
G1 X146.053 Y124.755 E29.20515
G1 X156.938 Y124.755 E29.55170
G1 X156.527 Y125.255 E29.57229
G1 X145.592 Y125.255 E29.92045
G1 X143.652 Y125.255 F7800.000
G1 X103.270 Y125.255 E31.20610 F1080.000
G1 X103.800 Y124.755 E31.22929
G1 X118.778 Y124.755 E31.70615
G1 X116.970 Y124.255 F7800.000
G1 X104.068 Y124.255 E32.11691 F1080.000
G1 X104.161 Y123.755 E32.13310
G1 X115.321 Y123.755 E32.48841
G1 X113.732 Y123.255 F7800.000
G1 X104.126 Y123.255 E32.79426 F1080.000
G1 X103.913 Y122.755 E32.81156
G1 X112.797 Y122.755 E33.09438
G1 F1800.000 E32.09438
G92 E0
G1 X115.087 Y129.256 F7800.000
G1 E1.00000 F1800.000
G1 X93.678 Y129.256 E1.68163 F1080.000
G1 X94.172 Y129.756 E1.70401
G1 X114.514 Y129.756 E2.35166
G1 X114.250 Y130.256 E2.36967
G1 X94.781 Y130.256 E2.98950
G1 X95.391 Y130.756 E3.01460
G1 X114.136 Y130.756 E3.61141
G1 X114.158 Y131.256 E3.62735
G1 X96.000 Y131.256 E4.20544
G1 X96.610 Y131.757 E4.23054
G1 X114.324 Y131.757 E4.79453
G1 X114.697 Y132.257 E4.81439
G1 X97.219 Y132.257 E5.37084
G1 X97.828 Y132.757 E5.39594
G1 X149.094 Y132.757 E7.02810
G1 X148.484 Y133.257 E7.05320
G1 X98.438 Y133.257 E8.64656
G1 X99.047 Y133.757 E8.67166
G1 X147.875 Y133.757 E10.22622
G1 X147.266 Y134.257 E10.25131
G1 X99.656 Y134.257 E11.76707
G1 X100.276 Y134.757 E11.79241
G1 X146.646 Y134.757 E13.26874
G1 X145.711 Y135.257 E13.30251
G1 X101.211 Y135.257 E14.71926
G1 X102.147 Y135.757 E14.75303
G1 X144.775 Y135.757 E16.11020
G1 X143.839 Y136.257 E16.14398
G1 X103.083 Y136.257 E17.44157
G1 X104.018 Y136.758 E17.47535
G1 X142.904 Y136.758 E18.71336
G1 X141.968 Y137.258 E18.74714
G1 X104.954 Y137.258 E19.92558
G1 X105.889 Y137.758 E19.95936
G1 X141.032 Y137.758 E21.07822
G1 X140.097 Y138.258 E21.11200
G1 X106.825 Y138.258 E22.17128
G1 X107.982 Y138.758 F7800.000
G1 X138.940 Y138.758 E23.15694 F1080.000
G1 X137.292 Y139.258 F7800.000
G1 X109.630 Y139.258 E24.03762 F1080.000
G1 X111.279 Y139.758 F7800.000
G1 X135.643 Y139.758 E24.81332 F1080.000
G1 X133.995 Y140.258 F7800.000
G1 X112.927 Y140.258 E25.48405 F1080.000
G1 X114.576 Y140.758 F7800.000
G1 X132.346 Y140.758 E26.04980 F1080.000
G1 F1800.000 E25.04980
G92 E0
G1 X128.794 Y141.258 F7800.000
G1 E1.00000 F1800.000
G1 X118.128 Y141.258 E1.33956 F1080.000
G1 F1800.000 E0.33956
G92 E0
G1 X123.206 Y141.759 F7800.000
G1 E1.00000 F1800.000
G1 X123.716 Y141.759 E1.01624 F1080.000
G1 F1800.000 E0.01624
G92 E0
G1 X130.002 Y132.257 F7800.000
G1 E1.00000 F1800.000
G1 X116.920 Y132.257 E1.41651 F1080.000
G1 X117.317 Y131.757 E1.43684
G1 X129.605 Y131.757 E1.82806
G1 X129.404 Y131.256 E1.84521
G1 X117.518 Y131.256 E2.22365
G1 X117.562 Y130.756 E2.23963
G1 X129.360 Y130.756 E2.61523
G1 X129.437 Y130.256 E2.63134
G1 X117.485 Y130.256 E3.01188
G1 X117.242 Y129.756 E3.02958
G1 X129.680 Y129.756 E3.42560
G1 X130.219 Y129.256 E3.44901
G1 X116.703 Y129.256 E3.87935
G1 F1800.000 E2.87935
G92 E0
G1 X128.144 Y124.755 F7800.000
G1 E1.00000 F1800.000
G1 X143.122 Y124.755 E1.47686 F1080.000
G1 X142.854 Y124.255 E1.49493
G1 X129.952 Y124.255 E1.90568
G1 X131.601 Y123.755 F7800.000
G1 X142.761 Y123.755 E2.26099 F1080.000
G1 X142.796 Y123.255 E2.27695
G1 X133.190 Y123.255 E2.58280
G1 X134.125 Y122.755 E2.61658
G1 X143.008 Y122.755 E2.89940
G1 X143.497 Y122.255 E2.92165
G1 X135.061 Y122.255 E3.19024
G1 F1800.000 E2.19024
G92 E0
G1 X132.226 Y132.257 F7800.000
G1 E1.00000 F1800.000
G1 X149.703 Y132.257 E1.55644 F1080.000
G1 X150.312 Y131.757 E1.58154
G1 X132.598 Y131.757 E2.14552
G1 X132.764 Y131.256 E2.16230
G1 X150.922 Y131.256 E2.74040
G1 X151.531 Y130.756 E2.76549
G1 X132.786 Y130.756 E3.36230
G1 X132.672 Y130.256 E3.37863
G1 X152.141 Y130.256 E3.99847
G1 X152.750 Y129.756 E4.02357
