; generated by Slic3r 0.9.11-dev on 2013-12-24 at 11:03:23

; layer_height = 0.4
; perimeters = 3
; top_solid_layers = 3
; bottom_solid_layers = 3
; fill_density = 0.4
; perimeter_speed = 30
; infill_speed = 60
; travel_speed = 130
; nozzle_diameter = 0.5
; filament_diameter = 3
; extrusion_multiplier = 0.9
; perimeters extrusion width = 0.50mm
; infill extrusion width = 0.53mm
; solid infill extrusion width = 0.53mm
; top infill extrusion width = 0.53mm
; support material extrusion width = 0.50mm
; first layer extrusion width = 1.00mm

G21 ; set units to millimeters
M107
M190 S55 ; wait for bed temperature to be reached
M104 S200 ; set temperature
G28 ; home all axes
G1 Z5 F5000 ; lift nozzle
M109 S200 ; wait for temperature to be reached
G90 ; use absolute coordinates
G92 E0
M82 ; use absolute distances for extrusion
G1 F1800.000 E-1.00000
G92 E0
G1 Z0.500 F7800.000
G1 X30.864 Y54.248 F7800.000
G1 E1.00000 F1800.000
G1 X32.054 Y53.608 E1.07679 F540.000
G1 X33.354 Y53.218 E1.15392
G1 X34.694 Y53.088 E1.23043
G1 X98.454 Y53.088 E4.85398
G1 X165.564 Y55.628 E8.67064
G1 X166.874 Y55.808 E8.74578
G1 X168.124 Y56.228 E8.82073
G1 X169.264 Y56.878 E8.89530
G1 X170.274 Y57.738 E8.97069
G1 X171.084 Y58.768 E9.04516
G1 X171.694 Y59.938 E9.12015
G1 X172.074 Y61.208 E9.19548
G1 X172.194 Y62.518 E9.27024
G1 X172.194 Y140.018 E13.67465
G1 X172.064 Y141.358 E13.75116
G1 X171.674 Y142.658 E13.82829
G1 X171.034 Y143.848 E13.90508
G1 X170.174 Y144.888 E13.98177
G1 X169.134 Y145.748 E14.05847
G1 X167.944 Y146.388 E14.13526
G1 X166.644 Y146.778 E14.21239
G1 X165.304 Y146.908 E14.28890
G1 X101.544 Y146.908 E17.91245
G1 X34.434 Y144.368 E21.72910
G1 X33.124 Y144.188 E21.80425
G1 X31.874 Y143.768 E21.87919
G1 X30.734 Y143.118 E21.95377
G1 X29.724 Y142.258 E22.02916
G1 X28.914 Y141.228 E22.10363
G1 X28.304 Y140.058 E22.17862
G1 X27.924 Y138.788 E22.25395
G1 X27.804 Y137.478 E22.32871
G1 X27.804 Y59.978 E26.73311
G1 X27.934 Y58.638 E26.80963
G1 X28.324 Y57.338 E26.88676
G1 X28.964 Y56.148 E26.96355
G1 X29.824 Y55.108 E27.04024
G1 X30.761 Y54.334 E27.10933
G1 F1800.000 E26.10933
G92 E0
G1 X98.194 Y100.978 F7800.000
G1 E1.00000 F1800.000
G1 X34.694 Y100.978 E3.02129 F1080.000
G1 X34.694 Y101.478 E3.03720
G1 X98.194 Y101.478 E5.05849
G1 X98.194 Y101.978 E5.07440
G1 X34.694 Y101.978 E7.09569
G1 X34.694 Y102.478 E7.11160
G1 X98.194 Y102.478 E9.13289
G1 X98.194 Y102.978 E9.14880
G1 X34.694 Y102.978 E11.17009
G1 X34.694 Y103.478 E11.18601
G1 X98.194 Y103.478 E13.20729
G1 X98.194 Y103.978 E13.22321
G1 X34.694 Y103.978 E15.24449
G1 X34.694 Y104.478 E15.26041
G1 X98.194 Y104.478 E17.28169
G1 X98.194 Y104.978 E17.29761
G1 X34.694 Y104.978 E19.31889
G1 X34.694 Y105.478 E19.33481
G1 X98.194 Y105.478 E21.35610
G1 X98.194 Y105.978 E21.37201
G1 X34.694 Y105.978 E23.39330
G1 X34.694 Y106.478 E23.40921
G1 X98.194 Y106.478 E25.43050
G1 X98.194 Y106.978 E25.44641
G1 X34.694 Y106.978 E27.46770
G1 X34.694 Y107.478 E27.48361
G1 X98.194 Y107.478 E29.50490
G1 X98.194 Y107.978 E29.52082
G1 X34.694 Y107.978 E31.54210
G1 X34.694 Y108.478 E31.55802
G1 X98.194 Y108.478 E33.57930
G1 X98.194 Y108.978 E33.59522
G1 X34.694 Y108.978 E35.61650
G1 X34.694 Y109.478 E35.63242
G1 X98.194 Y109.478 E37.65370
G1 X98.194 Y109.978 E37.66962
G1 X34.694 Y109.978 E39.69091
G1 X34.694 Y110.478 E39.70682
G1 X98.194 Y110.478 E41.72811
G1 X98.194 Y110.978 E41.74402
G1 X34.694 Y110.978 E43.76531
G1 X34.694 Y111.478 E43.78122
G1 X98.194 Y111.478 E45.80251
G1 X98.194 Y111.978 E45.81843
G1 X34.694 Y111.978 E47.83971
G1 X34.694 Y112.478 E47.85563
G1 X98.194 Y112.478 E49.87691
G1 X98.194 Y112.978 E49.89283
G1 X34.694 Y112.978 E51.91411
G1 X34.694 Y113.478 E51.93003
G1 X98.194 Y113.478 E53.95131
G1 X98.194 Y113.978 E53.96723
G1 X34.694 Y113.978 E55.98852
G1 X34.694 Y114.478 E56.00443
G1 X98.194 Y114.478 E58.02572
G1 X98.194 Y114.978 E58.04163
G1 X34.694 Y114.978 E60.06292
G1 X34.694 Y115.478 E60.07883
G1 X98.194 Y115.478 E62.10012
G1 X98.194 Y115.978 E62.11603
G1 X34.694 Y115.978 E64.13732
G1 X34.694 Y116.478 E64.15324
G1 X98.194 Y116.478 E66.17452
G1 X98.194 Y116.978 E66.19044
G1 X34.694 Y116.978 E68.21172
G1 X34.694 Y117.478 E68.22764
G1 X98.194 Y117.478 E70.24892
G1 X98.194 Y117.978 E70.26484
G1 X34.694 Y117.978 E72.28612
G1 X34.694 Y118.478 E72.30204
G1 X98.194 Y118.478 E74.32333
G1 X98.194 Y118.978 E74.33924
G1 X34.694 Y118.978 E76.36053
G1 X34.694 Y119.478 E76.37644
G1 X98.194 Y119.478 E78.39773
G1 X98.194 Y119.978 E78.41364
G1 X34.694 Y119.978 E80.43493
G1 X34.694 Y120.478 E80.45084
G1 X98.194 Y120.478 E82.47213
G1 X98.194 Y120.978 E82.48805
G1 X34.694 Y120.978 E84.50933
G1 X34.694 Y121.478 E84.52525
G1 X98.194 Y121.478 E86.54653
G1 X98.194 Y121.978 E86.56245
G1 X34.694 Y121.978 E88.58373
G1 X34.694 Y122.478 E88.59965
G1 X98.194 Y122.478 E90.62093
G1 X98.194 Y122.978 E90.63685
G1 X34.694 Y122.978 E92.65814
G1 X34.694 Y123.478 E92.67405
G1 X98.194 Y123.478 E94.69534
G1 X98.194 Y123.978 E94.71125
G1 X34.694 Y123.978 E96.73254
G1 X34.694 Y124.478 E96.74845
G1 X98.194 Y124.478 E98.76974
G1 X98.194 Y124.978 E98.78565
G1 X34.694 Y124.978 E100.80694
G1 X34.694 Y125.478 E100.82286
G1 X98.194 Y125.478 E102.84414
G1 X98.194 Y125.978 E102.86006
G1 X34.694 Y125.978 E104.88134
G1 X34.694 Y126.479 E104.89726
G1 X98.194 Y126.479 E106.91854
G1 X98.194 Y126.979 E106.93446
G1 X34.694 Y126.979 E108.95574
G1 X34.694 Y127.479 E108.97166
G1 X98.194 Y127.479 E110.99295
G1 X98.194 Y127.979 E111.00886
G1 X34.694 Y127.979 E113.03015
G1 X34.694 Y128.479 E113.04606
G1 X98.194 Y128.479 E115.06735
G1 X98.194 Y128.979 E115.08326
G1 X34.694 Y128.979 E117.10455
G1 X34.694 Y129.479 E117.12047
G1 X98.194 Y129.479 E119.14175
G1 X98.194 Y129.979 E119.15767
G1 X34.694 Y129.979 E121.17895
G1 X34.694 Y130.479 E121.19487
G1 X98.194 Y130.479 E123.21615
G1 X98.194 Y130.979 E123.23207
G1 X34.694 Y130.979 E125.25335
G1 X34.694 Y131.479 E125.26927
G1 X98.194 Y131.479 E127.29056
G1 X98.194 Y131.979 E127.30647
G1 X34.694 Y131.979 E129.32776
G1 X34.694 Y132.479 E129.34367
G1 X98.194 Y132.479 E131.36496
G1 X98.194 Y132.979 E131.38087
G1 X34.694 Y132.979 E133.40216
G1 X34.694 Y133.479 E133.41807
G1 X98.194 Y133.479 E135.43936
G1 X98.194 Y133.979 E135.45528
G1 X34.694 Y133.979 E137.47656
G1 X34.694 Y134.479 E137.49248
G1 X98.194 Y134.479 E139.51376
G1 X98.194 Y134.979 E139.52968
G1 X34.694 Y134.979 E141.55096
G1 X34.694 Y135.479 E141.56688
G1 X98.194 Y135.479 E143.58816
G1 X98.194 Y135.979 E143.60408
G1 X34.694 Y135.979 E145.62537
G1 X34.694 Y136.479 E145.64128
G1 X98.194 Y136.479 E147.66257
G1 X98.194 Y136.979 E147.67848
G1 X34.694 Y136.979 E149.69977
G1 X34.694 Y137.479 E149.71568
G1 X98.194 Y137.479 E151.73697
G1 F1800.000 E150.73697
G92 E0
G1 X165.306 Y140.022 F7800.000
G1 E1.00000 F1800.000
G1 X101.806 Y140.022 E3.02128 F1080.000
G1 X101.806 Y139.522 E3.03720
G1 X165.306 Y139.522 E5.05849
G1 X165.306 Y139.022 E5.07440
G1 X101.806 Y139.022 E7.09569
G1 X101.806 Y138.522 E7.11160
G1 X165.306 Y138.522 E9.13289
G1 X165.306 Y138.022 E9.14880
G1 X101.806 Y138.022 E11.17009
G1 X101.806 Y137.522 E11.18600
G1 X165.306 Y137.522 E13.20729
G1 X165.306 Y137.022 E13.22320
G1 X101.806 Y137.022 E15.24449
G1 X101.806 Y136.522 E15.26040
G1 X165.306 Y136.522 E17.28169
G1 X165.306 Y136.022 E17.29760
G1 X101.806 Y136.022 E19.31889
G1 X101.806 Y135.522 E19.33480
G1 X165.306 Y135.522 E21.35609
G1 X165.306 Y135.022 E21.37200
G1 X101.806 Y135.022 E23.39329
G1 X101.806 Y134.522 E23.40920
G1 X165.306 Y134.522 E25.43049
G1 X165.306 Y134.022 E25.44641
G1 X101.806 Y134.022 E27.46769
G1 X101.806 Y133.522 E27.48361
G1 X165.306 Y133.522 E29.50489
G1 X165.306 Y133.022 E29.52081
G1 X101.806 Y133.022 E31.54209
G1 X101.806 Y132.522 E31.55801
G1 X165.306 Y132.522 E33.57929
G1 X165.306 Y132.022 E33.59521
G1 X101.806 Y132.022 E35.61649
G1 X101.806 Y131.522 E35.63241
G1 X165.306 Y131.522 E37.65369
G1 X165.306 Y131.022 E37.66961
G1 X101.806 Y131.022 E39.69089
G1 X101.806 Y130.522 E39.70681
G1 X165.306 Y130.522 E41.72809
G1 X165.306 Y130.022 E41.74401
G1 X101.806 Y130.022 E43.76529
G1 X101.806 Y129.522 E43.78121
G1 X165.306 Y129.522 E45.80249
G1 X165.306 Y129.022 E45.81841
G1 X101.806 Y129.022 E47.83969
G1 X101.806 Y128.522 E47.85561
G1 X165.306 Y128.522 E49.87689
G1 X165.306 Y128.022 E49.89281
G1 X101.806 Y128.022 E51.91410
G1 X101.806 Y127.522 E51.93001
G1 X165.306 Y127.522 E53.95130
G1 X165.306 Y127.022 E53.96721
G1 X101.806 Y127.022 E55.98850
G1 X101.806 Y126.522 E56.00441
G1 X165.306 Y126.522 E58.02570
G1 X165.306 Y126.022 E58.04161
G1 X101.806 Y126.022 E60.06290
G1 X101.806 Y125.522 E60.07881
G1 X165.306 Y125.522 E62.10010
G1 X165.306 Y125.022 E62.11601
G1 X101.806 Y125.022 E64.13730
G1 X101.806 Y124.522 E64.15321
G1 X165.306 Y124.522 E66.17450
G1 X165.306 Y124.022 E66.19041
G1 X101.806 Y124.022 E68.21170
G1 X101.806 Y123.522 E68.22761
G1 X165.306 Y123.522 E70.24890
G1 X165.306 Y123.022 E70.26481
G1 X101.806 Y123.022 E72.28610
G1 X101.806 Y122.522 E72.30202
G1 X165.306 Y122.522 E74.32330
G1 X165.306 Y122.022 E74.33922
G1 X101.806 Y122.022 E76.36050
G1 X101.806 Y121.522 E76.37642
G1 X165.306 Y121.522 E78.39770
G1 X165.306 Y121.022 E78.41362
G1 X101.806 Y121.022 E80.43490
G1 X101.806 Y120.522 E80.45082
G1 X165.306 Y120.522 E82.47210
G1 X165.306 Y120.022 E82.48802
G1 X101.806 Y120.022 E84.50930
G1 X101.806 Y119.522 E84.52522
G1 X165.306 Y119.522 E86.54650
G1 X165.306 Y119.022 E86.56242
G1 X101.806 Y119.022 E88.58370
G1 X101.806 Y118.522 E88.59962
G1 X165.306 Y118.522 E90.62090
G1 X165.306 Y118.022 E90.63682
G1 X101.806 Y118.022 E92.65810
G1 X101.806 Y117.522 E92.67402
G1 X165.306 Y117.522 E94.69530
G1 X165.306 Y117.022 E94.71122
G1 X101.806 Y117.022 E96.73250
G1 X101.806 Y116.522 E96.74842
G1 X165.306 Y116.522 E98.76971
G1 X165.306 Y116.022 E98.78562
G1 X101.806 Y116.022 E100.80691
G1 X101.806 Y115.522 E100.82282
G1 X165.306 Y115.522 E102.84411
G1 X165.306 Y115.022 E102.86002
G1 X101.806 Y115.022 E104.88131
G1 X101.806 Y114.521 E104.89722
G1 X165.306 Y114.521 E106.91851
G1 X165.306 Y114.021 E106.93442
G1 X101.806 Y114.021 E108.95571
G1 X101.806 Y113.521 E108.97162
G1 X165.306 Y113.521 E110.99291
G1 X165.306 Y113.021 E111.00882
G1 X101.806 Y113.021 E113.03011
G1 X101.806 Y112.521 E113.04602
G1 X165.306 Y112.521 E115.06731
G1 X165.306 Y112.021 E115.08322
G1 X101.806 Y112.021 E117.10451
G1 X101.806 Y111.521 E117.12042
G1 X165.306 Y111.521 E119.14171
G1 X165.306 Y111.021 E119.15763
G1 X101.806 Y111.021 E121.17891
G1 X101.806 Y110.521 E121.19483
G1 X165.306 Y110.521 E123.21611
G1 X165.306 Y110.021 E123.23203
G1 X101.806 Y110.021 E125.25331
G1 X101.806 Y109.521 E125.26923
G1 X165.306 Y109.521 E127.29051
G1 X165.306 Y109.021 E127.30643
G1 X101.806 Y109.021 E129.32771
G1 X101.806 Y108.521 E129.34363
G1 X165.306 Y108.521 E131.36491
G1 X165.306 Y108.021 E131.38083
G1 X101.806 Y108.021 E133.40211
G1 X101.806 Y107.521 E133.41803
G1 X165.306 Y107.521 E135.43931
G1 X165.306 Y107.021 E135.45523
G1 X101.806 Y107.021 E137.47651
G1 X101.806 Y106.521 E137.49243
G1 X165.306 Y106.521 E139.51371
G1 X165.306 Y106.021 E139.52963
G1 X101.806 Y106.021 E141.55091
G1 X101.806 Y105.521 E141.56683
G1 X165.306 Y105.521 E143.58811
G1 X165.306 Y105.021 E143.60403
G1 X101.806 Y105.021 E145.62532
G1 X101.806 Y104.521 E145.64123
G1 X165.306 Y104.521 E147.66252
G1 X165.306 Y104.021 E147.67843
G1 X101.806 Y104.021 E149.69972
G1 X101.806 Y103.521 E149.71563
G1 X165.306 Y103.521 E151.73692
G1 F1800.000 E150.73692
G92 E0
G1 X165.306 Y99.022 F7800.000
G1 E1.00000 F1800.000
G1 X101.806 Y99.022 E3.02128 F1080.000
G1 X101.806 Y98.522 E3.03720
G1 X165.306 Y98.522 E5.05849
G1 X165.306 Y98.022 E5.07440
G1 X101.806 Y98.022 E7.09569
G1 X101.806 Y97.522 E7.11160
G1 X165.306 Y97.522 E9.13289
G1 X165.306 Y97.022 E9.14880
G1 X101.806 Y97.022 E11.17009
G1 X101.806 Y96.522 E11.18600
G1 X165.306 Y96.522 E13.20729
G1 X165.306 Y96.022 E13.22320
G1 X101.806 Y96.022 E15.24449
G1 X101.806 Y95.522 E15.26040
G1 X165.306 Y95.522 E17.28169
G1 X165.306 Y95.022 E17.29760
G1 X101.806 Y95.022 E19.31889
G1 X101.806 Y94.522 E19.33480
G1 X165.306 Y94.522 E21.35609
G1 X165.306 Y94.022 E21.37200
G1 X101.806 Y94.022 E23.39329
G1 X101.806 Y93.522 E23.40920
G1 X165.306 Y93.522 E25.43049
G1 X165.306 Y93.022 E25.44641
G1 X101.806 Y93.022 E27.46769
G1 X101.806 Y92.522 E27.48361
G1 X165.306 Y92.522 E29.50489
G1 X165.306 Y92.022 E29.52081
G1 X101.806 Y92.022 E31.54209
G1 X101.806 Y91.522 E31.55801
G1 X165.306 Y91.522 E33.57929
G1 X165.306 Y91.022 E33.59521
G1 X101.806 Y91.022 E35.61649
G1 X101.806 Y90.522 E35.63241
G1 X165.306 Y90.522 E37.65369
G1 X165.306 Y90.022 E37.66961
G1 X101.806 Y90.022 E39.69089
G1 X101.806 Y89.522 E39.70681
G1 X165.306 Y89.522 E41.72809
G1 X165.306 Y89.022 E41.74401
G1 X101.806 Y89.022 E43.76529
G1 X101.806 Y88.522 E43.78121
G1 X165.306 Y88.522 E45.80249
G1 X165.306 Y88.022 E45.81841
G1 X101.806 Y88.022 E47.83969
G1 X101.806 Y87.522 E47.85561
G1 X165.306 Y87.522 E49.87689
G1 X165.306 Y87.022 E49.89281
G1 X101.806 Y87.022 E51.91410
G1 X101.806 Y86.522 E51.93001
G1 X165.306 Y86.522 E53.95130
G1 X165.306 Y86.022 E53.96721
G1 X101.806 Y86.022 E55.98850
G1 X101.806 Y85.522 E56.00441
G1 X165.306 Y85.522 E58.02570
G1 X165.306 Y85.022 E58.04161
G1 X101.806 Y85.022 E60.06290
G1 X101.806 Y84.522 E60.07881
G1 X165.306 Y84.522 E62.10010
G1 X165.306 Y84.022 E62.11601
G1 X101.806 Y84.022 E64.13730
G1 X101.806 Y83.522 E64.15321
G1 X165.306 Y83.522 E66.17450
G1 X165.306 Y83.022 E66.19041
G1 X101.806 Y83.022 E68.21170
G1 X101.806 Y82.522 E68.22761
G1 X165.306 Y82.522 E70.24890
G1 X165.306 Y82.022 E70.26481
G1 X101.806 Y82.022 E72.28610
G1 X101.806 Y81.522 E72.30202
G1 X165.306 Y81.522 E74.32330
G1 X165.306 Y81.022 E74.33922
G1 X101.806 Y81.022 E76.36050
G1 X101.806 Y80.522 E76.37642
G1 X165.306 Y80.522 E78.39770
G1 X165.306 Y80.022 E78.41362
G1 X101.806 Y80.022 E80.43490
G1 X101.806 Y79.522 E80.45082
G1 X165.306 Y79.522 E82.47210
G1 X165.306 Y79.022 E82.48802
G1 X101.806 Y79.022 E84.50930
G1 X101.806 Y78.522 E84.52522
G1 X165.306 Y78.522 E86.54650
G1 X165.306 Y78.022 E86.56242
G1 X101.806 Y78.022 E88.58370
G1 X101.806 Y77.522 E88.59962
G1 X165.306 Y77.522 E90.62090
G1 X165.306 Y77.022 E90.63682
G1 X101.806 Y77.022 E92.65810
G1 X101.806 Y76.522 E92.67402
G1 X165.306 Y76.522 E94.69530
G1 X165.306 Y76.022 E94.71122
G1 X101.806 Y76.022 E96.73250
G1 X101.806 Y75.522 E96.74842
G1 X165.306 Y75.522 E98.76971
G1 X165.306 Y75.022 E98.78562
G1 X101.806 Y75.022 E100.80691
G1 X101.806 Y74.522 E100.82282
G1 X165.306 Y74.522 E102.84411
G1 X165.306 Y74.022 E102.86002
G1 X101.806 Y74.022 E104.88131
G1 X101.806 Y73.521 E104.89722
G1 X165.306 Y73.521 E106.91851
G1 X165.306 Y73.021 E106.93442
G1 X101.806 Y73.021 E108.95571
G1 X101.806 Y72.521 E108.97162
G1 X165.306 Y72.521 E110.99291
G1 X165.306 Y72.021 E111.00882
G1 X101.806 Y72.021 E113.03011
G1 X101.806 Y71.521 E113.04602
G1 X165.306 Y71.521 E115.06731
G1 X165.306 Y71.021 E115.08322
G1 X101.806 Y71.021 E117.10451
G1 X101.806 Y70.521 E117.12042
G1 X165.306 Y70.521 E119.14171
G1 X165.306 Y70.021 E119.15763
G1 X101.806 Y70.021 E121.17891
G1 X101.806 Y69.521 E121.19483
G1 X165.306 Y69.521 E123.21611
G1 X165.306 Y69.021 E123.23203
G1 X101.806 Y69.021 E125.25331
G1 X101.806 Y68.521 E125.26923
G1 X165.306 Y68.521 E127.29051
G1 X165.306 Y68.021 E127.30643
G1 X101.806 Y68.021 E129.32771
G1 X101.806 Y67.521 E129.34363
G1 X165.306 Y67.521 E131.36491
G1 X165.306 Y67.021 E131.38083
G1 X101.806 Y67.021 E133.40211
G1 X101.806 Y66.521 E133.41803
G1 X165.306 Y66.521 E135.43931
G1 X165.306 Y66.021 E135.45523
G1 X101.806 Y66.021 E137.47651
G1 X101.806 Y65.521 E137.49243
G1 X165.306 Y65.521 E139.51371
G1 X165.306 Y65.021 E139.52963
G1 X101.806 Y65.021 E141.55091
G1 X101.806 Y64.521 E141.56683
G1 X165.306 Y64.521 E143.58811
G1 X165.306 Y64.021 E143.60403
G1 X101.806 Y64.021 E145.62532
G1 X101.806 Y63.521 E145.64123
G1 X165.306 Y63.521 E147.66252
G1 X165.306 Y63.021 E147.67843
G1 X101.806 Y63.021 E149.69972
G1 X101.806 Y62.521 E149.71563
G1 X165.306 Y62.521 E151.73692
G1 F1800.000 E150.73692
G92 E0
G1 X98.194 Y59.978 F7800.000
G1 E1.00000 F1800.000
G1 X34.694 Y59.978 E3.02129 F1080.000
